X:73
T:73 Morgiana in Ireland
C:Shoosmith MS
I:abc2nwc
M:6/8
L:1/8
K:A
E2E A2A|BAB c3|E2E A2A|c2d cAF|
[M:6/8]E2E A2A|BAB c2f|fed cdB|A2B cAF|
e2e edc|f2g a3|efe edc|f2g aec|
e2e edc|fgf fga|efd cdB|AGA cAF|
AGA c/2e3/2 z|AGA d/2f3/2 z|AGA A2B|c2d cAF|
AFA c/2e3/2 z|d/2f3/2 zc/2e3/2 z|f/2a3/2 zc/2e3/2 z|A2B cAF|]

